X: 1
T: Mike Hoban's
S: Lunasa ~ minus the chords
M: 3/4 
L: 1/8
K: G Major
|: (3Bcd |\
eA Ag fd | eA A2 (3Bcd | eg fd ce | dG G2 (3Bcd |
eA Ag fd | eg ag ef | ge dB Gd | BA A2 :|
|: (3Bcd |\
ea ab ag | ed ef ga | ge af ge | dB G2 (3Bcd |
ea ab ag | ed ef ga | ge d2 (3BAG | BA A2 :|
